libs/icons/src/svg/feedback.svg

<svg width="16" height="16" viewBox="0 0 16 16" fill="none" xmlns="http://www.w3.org/2000/svg">
<g clip-path="url(#clip0_3_3327)">
<path fill-rule="evenodd" clip-rule="evenodd" d="M0 7.33333C0 3.51258 3.69694 0.666664 8 0.666664C12.3031 0.666664 16 3.51258 16 7.33333L15.9998 7.34946C15.9801 8.16533 15.798 8.96909 15.4641 9.7138C15.1771 10.354 14.783 10.9395 14.2994 11.4455L14.6623 14.5902C14.6893 14.8242 14.5908 15.0551 14.4033 15.1975C14.2157 15.34 13.967 15.3729 13.7488 15.2842L10.0228 13.7685C9.35989 13.9354 8.67739 14.0133 7.99327 14C3.69308 13.997 0 11.1521 0 7.33333ZM8 2C4.16973 2 1.33333 4.48742 1.33333 7.33333C1.33333 10.1792 4.16973 12.6667 8 12.6667L8.01357 12.6668C8.64569 12.6797 9.2762 12.5983 9.88435 12.4254C10.0275 12.3847 10.1801 12.3931 10.3179 12.4491L13.2087 13.6251L12.9377 11.2764C12.9135 11.0665 12.9902 10.8575 13.1445 10.7132C13.6111 10.2766 13.9861 9.75147 14.2474 9.16839C14.5077 8.58777 14.6502 7.9613 14.6667 7.32527C14.6613 4.48273 11.8267 2 8 2Z" fill="#202327"/>
<path fill-rule="evenodd" clip-rule="evenodd" d="M8.00001 3.33333C8.3682 3.33333 8.66668 3.63181 8.66668 3.99999V8C8.66668 8.36819 8.3682 8.66666 8.00001 8.66666C7.63182 8.66666 7.33334 8.36819 7.33334 8V3.99999C7.33334 3.63181 7.63182 3.33333 8.00001 3.33333Z" fill="#202327"/>
<path d="M8.00001 11.3333C8.3682 11.3333 8.66668 11.0349 8.66668 10.6667C8.66668 10.2985 8.3682 10 8.00001 10C7.63182 10 7.33334 10.2985 7.33334 10.6667C7.33334 11.0349 7.63182 11.3333 8.00001 11.3333Z" fill="#202327"/>
</g>
<defs>
<clipPath id="clip0_3_3327">
<rect width="16" height="16" fill="white"/>
</clipPath>
</defs>
</svg>

<svg xmlns="http://www.w3.org/2000/svg" viewBox="0 0 16 16" class="sageicon"><path fill-rule="evenodd" d="M0 7.333C0 3.513 3.697.667 8 .667s8 2.846 8 6.666v.016a6.141 6.141 0 0 1-1.7 4.096l.362 3.145a.667.667 0 0 1-.913.694l-3.726-1.516a7.7 7.7 0 0 1-2.03.232C3.693 13.997 0 11.152 0 7.333ZM8 2C4.17 2 1.333 4.487 1.333 7.333S4.17 12.667 8 12.667h.014a6.366 6.366 0 0 0 1.87-.242.667.667 0 0 1 .434.024l2.89 1.176-.27-2.349a.667.667 0 0 1 .207-.563 4.81 4.81 0 0 0 1.522-3.388C14.66 4.483 11.827 2 8 2Z"/><path fill-rule="evenodd" d="M8 3.333c.368 0 .667.299.667.667v4a.667.667 0 0 1-1.334 0V4c0-.368.299-.667.667-.667Z"/><path d="M8 11.333A.667.667 0 1 0 8 10a.667.667 0 0 0 0 1.333Z"/></svg>
